svg/u1f3c0.svg

<svg viewBox="0 0 128 128" xmlns="http://www.w3.org/2000/svg">
  <path d="M22.31,108.22c0,0,19.22,20.22,52.19,15.09c32.97-5.12,46.19-34.03,48.91-50.51 c3.46-20.99-6.13-35.42-6.64-36.21C116.39,36.01,22.31,108.22,22.31,108.22z" fill="#DC5819"/>
  <path d="M20.81,21.51C1.06,42.3-2.29,72.67,12.56,96.14c6.91,10.92,11.14,13.14,11.14,13.14 S56.01,130,92.32,98.59c31.1-26.9,24.51-61.93,24.51-61.93s-3.88-8.48-12.04-16.53C86.68,2.25,46.2-5.23,20.81,21.51z" fill="#EF6C32"/>
  <path d="M99.97,16.04c-0.29,0.02-29.18,2.1-59.74,43.18c-19.3,25.94-18.35,44.25-17.6,49.27 c0,0-1.47-1.21-2.51-2.33c-1.04-1.11-1.85-2.1-1.85-2.1c-0.08-8.79,2.55-25.45,18.76-47.23C61.7,23.64,85.29,14.99,95.18,12.75 c0,0,1.21,0.71,2.38,1.44C98.42,14.73,99.97,16.04,99.97,16.04z" fill="#2D3130"/>
  <path d="M15.57,27.78c3.21,5.27,10.96,16.66,24.38,28.55c16.89,14.98,34.45,27.16,52.17,36.19 c8.37,4.27,14.8,6.77,19.35,8.24c0,0-0.66,1.01-1.28,1.84c-0.62,0.83-1.3,1.53-1.3,1.53c-4.63-1.57-10.81-4.07-18.6-8.05 c-18.02-9.19-35.86-21.56-53-36.76C24.59,48.06,16.89,37.4,13.11,31.43c0,0,0.53-1.05,1.23-1.98S15.57,27.78,15.57,27.78z" fill="#2D3130"/>
  <path d="M53.18,4.77c-1.43,1.63-3.47,4.28-5.85,8.29c-2.18,3.66-3.3,7.3-4.6,11.52 C40.6,31.5,38.19,39.34,30.3,49.36C19.34,63.28,8.57,67.93,3.55,69.42c0,0-0.14-1.3-0.19-2.21c-0.05-0.91-0.03-1.94-0.03-1.94 c4.77-1.63,14.21-6.19,23.82-18.38c7.43-9.44,9.72-16.9,11.75-23.48c1.32-4.28,2.56-8.32,4.99-12.39c1.15-1.93,2.23-3.58,3.22-4.96 c0,0,1.11-0.37,2.63-0.71C50.92,5.07,53.18,4.77,53.18,4.77z" fill="#2D3130"/>
  <path d="M68.72,124.01c-3.35-3.03-10.27-9.95-15.32-19.58c-5.59-10.65-8.21-26.67-0.75-36.68 c8.52-11.42,24.43-12.97,38.89-12.97c0.02,0,0.04,0,0.06,0c18.41,0.01,32.26,3.86,32.42,3.91c0,0-0.11-1.35-0.26-2.5 c-0.13-0.99-0.27-1.91-0.27-1.91c-0.7-0.18-12.94-3.49-31.89-3.5c-0.02,0-0.04,0-0.06,0c-15.45,0-32.53,1.74-42.1,14.58 c-6.16,8.26-8.42,24.12,0.42,40.93c4.16,7.92,9.4,14.03,13.23,17.88c0,0,1.12,0.04,2.55,0.02 C67.05,124.17,68.72,124.01,68.72,124.01z" fill="#2D3130"/>
</svg>

<svg viewBox="0 0 128 128" xmlns="http://www.w3.org/2000/svg">
  <defs/>
  <path d="M22.31,108.22 C22.31,108.22 41.53,128.44 74.5,123.31 C107.47,118.19 120.69,89.28 123.41,72.8 C126.87,51.81 117.28,37.38 116.77,36.59 C116.39,36.01 22.31,108.22 22.31,108.22 Z" fill="#DC5819"/>
  <path d="M20.81,21.51 C1.06,42.3 -2.29,72.67 12.56,96.14 C19.47,107.06 23.7,109.28 23.7,109.28 C23.7,109.28 56.01,130 92.32,98.59 C123.42,71.69 116.83,36.66 116.83,36.66 C116.83,36.66 112.95,28.18 104.79,20.13 C86.68,2.25 46.2,-5.23 20.81,21.51 Z" fill="#EF6C32"/>
  <path d="M99.97,16.04 C99.68,16.06 70.79,18.14 40.23,59.22 C20.93,85.16 21.88,103.47 22.63,108.49 C22.63,108.49 21.16,107.28 20.12,106.16 C19.08,105.05 18.27,104.06 18.27,104.06 C18.19,95.27 20.82,78.61 37.03,56.83 C61.7,23.64 85.29,14.99 95.18,12.75 C95.18,12.75 96.39,13.46 97.56,14.19 C98.42,14.73 99.97,16.04 99.97,16.04 Z" fill="#2D3130"/>
  <path d="M15.57,27.78 C18.78,33.05 26.53,44.44 39.95,56.33 C56.84,71.31 74.4,83.49 92.12,92.52 C100.49,96.79 106.92,99.29 111.47,100.76 C111.47,100.76 110.81,101.77 110.19,102.6 C109.57,103.43 108.89,104.13 108.89,104.13 C104.26,102.56 98.08,100.06 90.29,96.08 C72.27,86.89 54.43,74.52 37.29,59.32 C24.59,48.06 16.89,37.4 13.11,31.43 C13.11,31.43 13.64,30.38 14.34,29.45 C15.04,28.52 15.57,27.78 15.57,27.78 Z" fill="#2D3130"/>
  <path d="M53.18,4.77 C51.75,6.4 49.71,9.05 47.33,13.06 C45.15,16.72 44.03,20.36 42.73,24.58 C40.6,31.5 38.19,39.34 30.3,49.36 C19.34,63.28 8.57,67.93 3.55,69.42 C3.55,69.42 3.41,68.12 3.36,67.21 C3.31,66.3 3.33,65.27 3.33,65.27 C8.1,63.64 17.54,59.08 27.15,46.89 C34.58,37.45 36.87,29.99 38.9,23.41 C40.22,19.13 41.46,15.09 43.89,11.02 C45.04,9.09 46.12,7.44 47.11,6.06 C47.11,6.06 48.22,5.69 49.74,5.35 C50.92,5.07 53.18,4.77 53.18,4.77 Z" fill="#2D3130"/>
  <path d="M68.72,124.01 C65.37,120.98 58.45,114.06 53.4,104.43 C47.81,93.78 45.19,77.76 52.65,67.75 C61.17,56.33 77.08,54.78 91.54,54.78 C91.56,54.78 91.58,54.78 91.6,54.78 C110.01,54.79 123.86,58.64 124.02,58.69 C124.02,58.69 123.91,57.34 123.76,56.19 C123.63,55.2 123.49,54.28 123.49,54.28 C122.79,54.1 110.55,50.79 91.6,50.78 C91.58,50.78 91.56,50.78 91.54,50.78 C76.09,50.78 59.01,52.52 49.44,65.36 C43.28,73.62 41.02,89.48 49.86,106.29 C54.02,114.21 59.26,120.32 63.09,124.17 C63.09,124.17 64.21,124.21 65.64,124.19 C67.05,124.17 68.72,124.01 68.72,124.01 Z" fill="#2D3130"/>
</svg>
